X: 33
T:Ormond Sound
M:4/4
L:1/8
F:http://blackrosetheband.googlepages.com/ABCTUNES.ABC May 2009
S:Altan - The Blue Idol track 8
R:reel
K:Ador
A2 ed BAdB | AGGG AG(3EFG | A2 ed (3B^cd ef | g2fa gedg |
eA (3ABA AedB | AGEF G2 AG | EA (3AAA GABd |1 gedB BAGB :|2 gedB A2 Ag |
|: efge agfg | eaag ed(3Bcd | (3efg fa gfge | dg (3ggg dBGB |
c2 c2 d2 ^cd | efge a4 | bg (3gfg agab |1 gedB BAAg :|2 gedB BA(3EFG ||

